icon/fa/eraser.svg

<svg xmlns="http://www.w3.org/2000/svg" viewBox="0 0 512 512"><!--! Font Awesome Free 6.1.2 by @fontawesome - https://fontawesome.com License - https://fontawesome.com/license/free (Icons: CC BY 4.0, Fonts: SIL OFL 1.1, Code: MIT License) Copyright 2022 Fonticons, Inc.--><path d="M480 416c17.7 0 32 14.3 32 32s-14.3 32-32 32H150.6c-16.9 0-33.2-6.7-45.2-18.7l-80.03-80c-24.991-25-24.991-65.6 0-90.6L258.7 57.37c25-24.99 65.6-24.99 90.6 0L486.6 194.7c25 25 25 65.6 0 90.6L355.9 416H480zm-214.6 0 67.3-67.3-137.4-137.4L70.63 336l79.97 80h114.8z"/></svg>

<svg xmlns="http://www.w3.org/2000/svg" viewBox="0 0 512 512" height="1em" width="1em">
<!--! Font Awesome Free 6.1.2 by @fontawesome - https://fontawesome.com License - https://fontawesome.com/license/free (Icons: CC BY 4.0, Fonts: SIL OFL 1.1, Code: MIT License) Copyright 2022 Fonticons, Inc.-->
  <path d="M480 416C497.7 416 512 430.3 512 448C512 465.7 497.7 480 480 480H150.6C133.7 480 117.4 473.3 105.4 461.3L25.37 381.3C.3786 356.3 .3786 315.7 25.37 290.7L258.7 57.37C283.7 32.38 324.3 32.38 349.3 57.37L486.6 194.7C511.6 219.7 511.6 260.3 486.6 285.3L355.9 416H480zM265.4 416L332.7 348.7L195.3 211.3L70.63 336L150.6 416L265.4 416z"/>
</svg>
